apps/filecoin-site/public/assets/logos/internet-archive-logo.svg

<svg width="100%" height="100%" fill="none"  viewBox="0 0 167 48" xmlns="http://www.w3.org/2000/svg">
<path d="M59.3633 40.5314L58.036 36.8647H53.5562L52.2288 40.5314H51.1338L54.6347 30.958C54.701 30.7755 54.9333 30.0786 54.9333 29.9127C54.9333 29.1661 54.1203 29.1661 53.5728 29.0831V28.7015H56.8745L61.1718 40.548H59.3467V40.5314H59.3633ZM55.7463 30.9082L53.8548 36.0517H57.7373L55.7463 30.9082ZM74.4452 40.5314L71.326 35.0562H70.2309V40.5314H68.2897V31.0741C68.2897 29.3818 68.2897 29.3154 66.6139 29.0665V28.6849H71.1435C73.2672 28.6849 75.9053 29.1495 75.9053 31.8374C75.9053 33.6127 74.8932 34.4589 73.2174 34.7409L76.4528 40.5314H74.4452ZM71.4089 29.5145C70.148 29.5145 70.2309 29.9957 70.2309 31.0907V34.2266H71.243C72.7861 34.2266 73.9807 33.6625 73.9807 31.9369C73.9807 30.1948 73.0847 29.5145 71.4089 29.5145ZM87.6689 40.6974C83.6205 40.6974 82.4756 38.0759 82.4756 34.4257C82.4756 31.0244 83.6039 28.6186 87.3868 28.6186C88.5814 28.6186 89.776 28.7845 90.9043 29.1495L91.0038 32.0862H90.4895C90.4397 31.7046 90.3236 31.3396 90.1245 31.0078C89.5769 30.062 88.6644 29.4647 87.5527 29.4647C84.898 29.4647 84.5496 32.4015 84.5496 34.4257C84.5496 36.6158 85.2133 39.7019 87.9509 39.7019C89.1124 39.7019 90.0747 39.4696 91.037 38.8059V40.0171C89.9254 40.5315 88.8635 40.6974 87.6689 40.6974ZM105.522 40.5314V34.7741H100.727V40.5314H98.7854V31.0078C98.7854 29.4647 98.5033 29.4481 97.0266 29.2822V28.9006L100.727 28.5024V33.9611H105.522V28.7015H107.463V40.548L105.522 40.5314ZM114.249 40.5314V40.0835C115.576 40.0835 115.742 39.735 115.742 38.4409V30.875C115.742 29.5975 115.56 29.2325 114.249 29.2325V28.8011H119.193V29.249C117.882 29.249 117.7 29.6141 117.7 30.8916V38.4575C117.7 39.7185 117.882 40.1001 119.193 40.1001V40.548L114.249 40.5314ZM132.035 40.5314H130.492L127.041 30.958C126.51 29.4813 126.427 29.3818 124.917 29.0997V28.7181H128.319L131.77 38.3579H131.803L135.171 28.7181H136.316L132.035 40.5314ZM150.22 40.5314H143.202V31.0741C143.202 29.3818 143.185 29.332 141.526 29.0665V28.6849H149.954L150.004 31.2898H149.506C149.506 29.9625 148.859 29.5145 147.615 29.5145H146.221C145.408 29.5145 145.11 29.5311 145.11 30.4271V33.9279H147.233C148.229 33.9279 148.511 33.4634 148.677 32.5674H149.175V36.2674H148.677C148.677 35.2885 148.262 34.7575 147.233 34.7575H145.11V38.6732C145.11 39.6355 145.325 39.6853 146.221 39.6853H148.179C149.374 39.6853 149.672 39.088 149.755 37.9597H150.253L150.22 40.5314ZM51.2499 24.4706V24.0226C52.5607 24.0226 52.7432 23.6742 52.7432 22.3801V14.8142C52.7432 13.5366 52.5607 13.1716 51.2499 13.1716V12.7402H56.1943V13.1882C54.8669 13.1882 54.701 13.5532 54.701 14.8308V22.3966C54.701 23.6576 54.8835 24.0392 56.1943 24.0392V24.4872L51.2499 24.4706Z" fill="#9F9FA9"/>
<path d="M70.5954 24.4725L64.7883 14.4677H64.7551V24.4725H63.6435V14.8991C63.6435 13.2399 63.378 13.3228 61.8848 13.0408V12.6592H65.6013L71.1596 22.2326H71.1928V12.6426H72.3044V24.4891L70.5954 24.4725Z" fill="#9F9FA9"/>
<path d="M88.0012 15.228C88.0012 13.8342 87.4039 13.4526 86.0766 13.4526H84.882V24.4696H82.9407V13.4526H81.7295C80.3856 13.4526 79.9376 13.8342 79.8381 15.1782H79.3403L79.4067 12.623H88.416L88.4824 15.228H88.0012Z" fill="#9F9FA9"/>
<path d="M102.586 24.4725H95.5674V15.0318C95.5674 13.3394 95.5508 13.2897 93.8916 13.0242V12.6426H102.32L102.37 15.2475H101.872C101.872 13.9201 101.225 13.4722 99.9808 13.4722H98.5871C97.7741 13.4722 97.4754 13.4888 97.4754 14.3847V17.869H99.5992C100.611 17.869 100.877 17.4044 101.043 16.5085H101.54V20.2084H101.043C101.043 19.2295 100.628 18.6986 99.5992 18.6986H97.4754V22.6142C97.4754 23.5766 97.6911 23.6263 98.5871 23.6263H100.545C101.74 23.6263 102.038 23.029 102.121 21.9008H102.619L102.586 24.4725Z" fill="#9F9FA9"/>
<path d="M116.754 24.4725L113.634 18.9972H112.539V24.4725H110.598V15.0318C110.598 13.3394 110.598 13.2731 108.922 13.0242V12.6426H113.452C115.576 12.6426 118.214 13.1071 118.214 15.795C118.214 17.5703 117.202 18.4165 115.526 18.6986L118.761 24.4891H116.754V24.4725ZM113.717 13.4556C112.456 13.4556 112.539 13.9367 112.539 15.0318V18.1676H113.535C115.078 18.1676 116.273 17.6035 116.273 15.878C116.289 14.1358 115.393 13.4556 113.717 13.4556Z" fill="#9F9FA9"/>
<path d="M133.28 24.4725L127.473 14.4677H127.44V24.4725H126.328V14.8991C126.328 13.2399 126.063 13.3228 124.569 13.0408V12.6592H128.286L133.844 22.2326H133.877V12.6426H134.989V24.4891L133.28 24.4725Z" fill="#9F9FA9"/>
<path d="M150.585 24.4725H143.567V15.0318C143.567 13.3394 143.55 13.2897 141.891 13.0242V12.6426H150.32L150.37 15.2475H149.872C149.872 13.9201 149.225 13.4722 147.98 13.4722H146.587C145.774 13.4722 145.475 13.4888 145.475 14.3847V17.869H147.599C148.611 17.869 148.876 17.4044 149.042 16.5085H149.54V20.2084H149.042C149.042 19.2295 148.627 18.6986 147.599 18.6986H145.475V22.6142C145.475 23.5766 145.691 23.6263 146.587 23.6263H148.544C149.739 23.6263 150.038 23.029 150.121 21.9008H150.618L150.585 24.4725Z" fill="#9F9FA9"/>
<path d="M165.717 15.228C165.717 13.8342 165.119 13.4526 163.792 13.4526H162.597V24.4696H160.656V13.4526H159.445C158.101 13.4526 157.653 13.8342 157.553 15.1782H157.056L157.122 12.623H166.131L166.198 15.228H165.717Z" fill="#9F9FA9"/>
<path d="M0.893555 45.8431H43.3187V48H0.893555V45.8431ZM2.56932 41.6619H41.7425V44.6816H2.56932V41.6619ZM2.32045 7.35016H41.2779V11.5147H2.32045V7.35016ZM21.7992 6.08918H41.0291L42.2071 4.79503L21.8158 0L1.42449 4.79503L2.60251 6.08918H21.7992ZM7.94506 24.7881L7.77914 18.616L7.4639 12.8089C7.4639 12.6429 7.38094 12.6098 7.2482 12.5766C6.68408 12.4604 6.10337 12.3941 5.52266 12.3941C4.94195 12.3941 4.37783 12.4604 3.79712 12.5766C3.64779 12.6098 3.58142 12.6429 3.58142 12.8089L3.26618 18.616L3.11685 24.7881L3.13344 29.1517L3.26618 33.9965L3.53165 39.1898L3.61461 40.1687C4.24509 40.3346 4.87558 40.4342 5.52266 40.4342C6.16974 40.4176 6.80023 40.3346 7.43071 40.1687L7.51367 39.1898L7.77914 33.9965L7.91187 29.1517L7.94506 24.7881ZM18.5472 24.7881L18.3813 18.616L18.066 12.8089C18.066 12.6429 17.9831 12.6098 17.8503 12.5766C17.2862 12.4604 16.7055 12.3941 16.1248 12.3941C15.5441 12.3941 14.98 12.4604 14.3993 12.5766C14.2499 12.6098 14.1836 12.6429 14.1836 12.8089L13.8683 18.616L13.719 24.7881V29.1517L13.8517 33.9965L14.1172 39.1898L14.2002 40.1687C14.8306 40.3346 15.4611 40.4342 16.1082 40.4342C16.7553 40.4176 17.3858 40.3346 18.0163 40.1687L18.0992 39.1898L18.3647 33.9965L18.4974 29.1517L18.5472 24.7881Z" fill="#9F9FA9"/>
<path d="M30.8585 24.7847L30.6926 18.6125L30.3773 12.8054C30.3773 12.6395 30.2943 12.6063 30.1616 12.5731C29.5975 12.457 29.0168 12.3906 28.4361 12.3906C27.8554 12.3906 27.2912 12.457 26.7105 12.5731C26.5612 12.6063 26.4948 12.6395 26.4948 12.8054L26.1796 18.6125L26.0137 24.7847L26.0303 29.1483L26.163 33.9931L26.4285 39.1863L26.5114 40.1653C27.1419 40.3312 27.7724 40.4307 28.4195 40.4307C29.0666 40.4141 29.697 40.3312 30.3275 40.1653L30.4105 39.1863L30.676 33.9931L30.8087 29.1483L30.8253 24.7847H30.8585Z" fill="#9F9FA9"/>
<path d="M41.2125 24.7847L41.0466 18.6125L40.7313 12.8054C40.7313 12.6395 40.6484 12.6063 40.5156 12.5731C39.9515 12.457 39.3708 12.3906 38.7901 12.3906C38.2094 12.3906 37.6452 12.457 37.0645 12.5731C36.9152 12.6063 36.8488 12.6395 36.8488 12.8054L36.5336 18.6125L36.3677 24.7847L36.3843 29.1483L36.517 33.9931L36.7825 39.1863L36.8654 40.1653C37.4959 40.3312 38.1264 40.4307 38.7735 40.4307C39.4206 40.4141 40.051 40.3312 40.6815 40.1653L40.7645 39.1863L41.03 33.9931L41.1627 29.1483L41.1793 24.7847H41.2125Z" fill="#9F9FA9"/>
</svg>

<svg xmlns="http://www.w3.org/2000/svg" fill="currentColor" viewBox="0 0 167 48"><path fill="#9F9FA9" d="m59.363 40.531-1.327-3.666h-4.48L52.23 40.53h-1.095l3.5-9.573c.067-.182.3-.88.3-1.045 0-.747-.814-.747-1.361-.83v-.381h3.301l4.298 11.846h-1.825v-.017h.016Zm-3.617-9.623-1.891 5.144h3.882l-1.99-5.144Zm18.7 9.623-3.12-5.475h-1.095v5.475H68.29v-9.457c0-1.692 0-1.759-1.676-2.008v-.381h4.53c2.123 0 4.761.465 4.761 3.152 0 1.776-1.012 2.622-2.688 2.904l3.236 5.79h-2.008Zm-3.037-11.016c-1.261 0-1.178.48-1.178 1.576v3.136h1.012c1.543 0 2.738-.564 2.738-2.29 0-1.742-.896-2.422-2.572-2.422Zm16.26 11.182c-4.048 0-5.193-2.621-5.193-6.271 0-3.402 1.128-5.807 4.91-5.807 1.195 0 2.39.166 3.518.53l.1 2.937h-.514a2.775 2.775 0 0 0-.365-1.078c-.548-.946-1.46-1.543-2.572-1.543-2.655 0-3.003 2.936-3.003 4.96 0 2.19.663 5.277 3.4 5.277 1.162 0 2.125-.232 3.087-.896v1.211c-1.112.514-2.174.68-3.368.68Zm17.853-.166v-5.757h-4.795v5.757h-1.942v-9.523c0-1.543-.282-1.56-1.758-1.726v-.381l3.7-.399v5.46h4.795v-5.26h1.941v11.846l-1.941-.017Zm8.727 0v-.447c1.327 0 1.493-.349 1.493-1.643v-7.566c0-1.277-.182-1.642-1.493-1.642V28.8h4.944v.448c-1.311 0-1.493.365-1.493 1.643v7.566c0 1.26.182 1.642 1.493 1.642v.448l-4.944-.017Zm17.786 0h-1.543l-3.451-9.573c-.531-1.477-.614-1.576-2.124-1.858v-.382h3.402l3.451 9.64h.033l3.368-9.64h1.145l-4.281 11.813Zm18.185 0h-7.018v-9.457c0-1.692-.017-1.742-1.676-2.008v-.381h8.428l.05 2.605h-.498c0-1.328-.647-1.775-1.891-1.775h-1.394c-.813 0-1.111.016-1.111.912v3.5h2.123c.996 0 1.278-.464 1.444-1.36h.498v3.7h-.498c0-.979-.415-1.51-1.444-1.51h-2.123v3.916c0 .962.215 1.012 1.111 1.012h1.958c1.195 0 1.493-.597 1.576-1.725h.498l-.033 2.571Zm-98.97-16.06v-.448c1.31 0 1.493-.349 1.493-1.643v-7.566c0-1.277-.182-1.642-1.493-1.642v-.432h4.944v.448c-1.327 0-1.493.365-1.493 1.643v7.566c0 1.26.182 1.642 1.493 1.642v.448l-4.944-.016ZM70.595 24.473l-5.807-10.005h-.033v10.005h-1.111v-9.574c0-1.66-.266-1.576-1.76-1.858v-.382h3.717l5.559 9.574h.033v-9.59h1.111v11.846l-1.709-.017ZM88.001 15.228c0-1.394-.597-1.775-1.924-1.775h-1.195V24.47h-1.941V13.453h-1.212c-1.343 0-1.791.381-1.89 1.725h-.499l.067-2.555h9.009l.066 2.605h-.48ZM102.586 24.473h-7.019v-9.441c0-1.693-.016-1.742-1.675-2.008v-.381h8.428l.05 2.604h-.498c0-1.327-.647-1.775-1.891-1.775h-1.394c-.813 0-1.112.017-1.112.913v3.484H99.6c1.012 0 1.278-.465 1.444-1.36h.497v3.7h-.497c0-.98-.415-1.51-1.444-1.51h-2.124v3.915c0 .963.216 1.012 1.112 1.012h1.958c1.195 0 1.493-.597 1.576-1.725h.498l-.033 2.572ZM116.754 24.473l-3.12-5.476h-1.095v5.476h-1.941v-9.441c0-1.693 0-1.759-1.676-2.008v-.381h4.53c2.124 0 4.762.464 4.762 3.152 0 1.775-1.012 2.621-2.688 2.904l3.235 5.79h-2.007v-.017Zm-3.037-11.017c-1.261 0-1.178.48-1.178 1.576v3.136h.996c1.543 0 2.738-.564 2.738-2.29.016-1.742-.88-2.422-2.556-2.422ZM133.28 24.473l-5.807-10.005h-.033v10.005h-1.112v-9.574c0-1.66-.265-1.576-1.759-1.858v-.382h3.717l5.558 9.574h.033v-9.59h1.112v11.846l-1.709-.017ZM150.585 24.473h-7.018v-9.441c0-1.693-.017-1.742-1.676-2.008v-.381h8.429l.05 2.604h-.498c0-1.327-.647-1.775-1.892-1.775h-1.393c-.813 0-1.112.017-1.112.913v3.484h2.124c1.012 0 1.277-.465 1.443-1.36h.498v3.7h-.498c0-.98-.415-1.51-1.443-1.51h-2.124v3.915c0 .963.216 1.012 1.112 1.012h1.957c1.195 0 1.494-.597 1.577-1.725h.497l-.033 2.572ZM165.717 15.228c0-1.394-.598-1.775-1.925-1.775h-1.195V24.47h-1.941V13.453h-1.211c-1.344 0-1.792.381-1.892 1.725h-.497l.066-2.555h9.009l.067 2.605h-.481ZM.894 45.843h42.425V48H.894v-2.157Zm1.675-4.181h39.174v3.02H2.569v-3.02ZM2.32 7.35h38.958v4.165H2.32V7.35ZM21.8 6.09h19.23l1.177-1.295L21.816 0 1.424 4.795l1.179 1.294h19.196ZM7.944 24.787l-.166-6.172-.315-5.807c0-.166-.083-.2-.216-.232a8.578 8.578 0 0 0-1.725-.183c-.581 0-1.145.066-1.726.183-.15.033-.216.066-.216.232l-.315 5.807-.15 6.172.017 4.364.133 4.844.266 5.194.083.979c.63.166 1.26.265 1.908.265a8.266 8.266 0 0 0 1.908-.265l.083-.98.265-5.193.133-4.844.033-4.364Zm10.602 0-.166-6.172-.315-5.807c0-.166-.083-.2-.216-.232a8.577 8.577 0 0 0-1.725-.183c-.58 0-1.145.066-1.726.183-.15.033-.215.066-.215.232l-.316 5.807-.149 6.172v4.364l.133 4.844.265 5.194.083.979c.63.166 1.261.265 1.908.265a8.267 8.267 0 0 0 1.908-.265l.083-.98.266-5.193.132-4.844.05-4.364ZM30.858 24.785l-.165-6.172-.316-5.808c0-.165-.083-.199-.215-.232a8.585 8.585 0 0 0-1.726-.182c-.58 0-1.145.066-1.726.182-.149.033-.215.066-.215.232l-.315 5.808-.166 6.172.016 4.363.133 4.845.265 5.193.083.98c.63.165 1.261.265 1.909.265a8.266 8.266 0 0 0 1.907-.266l.083-.979.266-5.193.133-4.845.016-4.363h.034ZM41.212 24.785l-.165-6.172-.316-5.808c0-.165-.083-.199-.215-.232a8.585 8.585 0 0 0-1.726-.182c-.58 0-1.145.066-1.725.182-.15.033-.216.066-.216.232l-.315 5.808-.166 6.172.016 4.363.133 4.845.265 5.193.083.98c.63.165 1.261.265 1.908.265a8.266 8.266 0 0 0 1.908-.266l.084-.979.265-5.193.133-4.845.016-4.363h.033Z"/></svg>
